X:49
T:Kesh, The
C:Traditional
R:jig
K:G
M:6/8
L:1/8
|: G3 GAB| A3 ABd| edd gdd| edB dBA|
! GAG GAB| ABA ABd| edd gdd| BAF G3:| ! |:
B2B d2d| ege dBA| B2B dBG| ABA AGA|
! BAB d^cd| ege dBd| gfg aga| bgg g3:|
%%footer JamBuddy 2025 - No rights reserved, public domain

